X:1
T: Limber up
C:
R:Reel
Q: 232
K:G
M:4/4
L:1/8
|:G2 Be d2 Be|d2 Be dB g2|G2 Be d2 Be|d2 cB Ac BA|
G2 Be d2 Be|d2 Be dB g2|G2 Be d2 B2|Ac BA G2 G2|
b2 gb a2 fa|g2 eg f^d B2|b2 gb a2 fa|gf ga b2 ga|
b2 gb a2 fa|g2 eg f^d B2|B2 ^df ba gf|ag fg e2 d2:|
